src/assets/sticker/china.svg

<svg width="100" height="100" viewBox="0 0 100 100" fill="none" xmlns="http://www.w3.org/2000/svg">
<g id="china" clip-path="url(#clip0_2005_310)">
<g id="Frame 1">
<path id="Union" d="M87.4259 11.7963H14.3704C7.42593 11.7963 1.79631 17.4259 1.79631 24.3704V78.2594C1.79631 85.2039 7.42591 90.8335 14.3704 90.8335H87.4259C94.3704 90.8335 100 85.2039 100 78.2594V24.3704C100 17.426 94.3704 11.7963 87.4259 11.7963Z" fill="#605F5E" fill-opacity="0.3"/>
<path id="Union_2" d="M85.6296 10H12.5741C5.62962 10 0 15.6296 0 22.5741V76.4631C0 83.4076 5.6296 89.0372 12.5741 89.0372H85.6296C92.5741 89.0372 98.2037 83.4076 98.2037 76.4631V22.5741C98.2037 15.6296 92.5741 10 85.6296 10Z" fill="#F5F1EE"/>
<g id="flag-container">
<g clip-path="url(#clip1_2005_310)">
<g id="China (CN)" clip-path="url(#clip2_2005_310)">
<path id="Vector" d="M9 19.9999H89V79.9999H9V19.9999Z" fill="#EE1C25"/>
<path id="Vector_2" d="M18.6001 42.1999L24 25.9999L29.3999 42.1999L15.0001 32.2999H32.9999L18.6001 42.1999Z" fill="#FFFF00"/>
<path id="Vector_3" d="M42.0214 26.3104L36.4642 27.5419L40.171 23.2223L39.8075 29.0359L36.7235 23.8891L42.0214 26.3104Z" fill="#FFFF00"/>
<path id="Vector_4" d="M47.6299 33.4184L42.03 32.3982L47.122 29.8544L44.5322 35.0719L43.6858 29.1319L47.6299 33.4184Z" fill="#FFFF00"/>
<path id="Vector_5" d="M46.8125 43.3905L42.1157 40.175L47.8024 39.9292L43.3098 43.6368L44.9596 37.8681L46.8125 43.3905Z" fill="#FFFF00"/>
<path id="Vector_6" d="M39.7486 49.905L36.6581 45.125L41.9985 47.0947L36.4225 48.7794L40.1723 44.0955L39.7486 49.905Z" fill="#FFFF00"/>
</g>
<g id="filter" style="mix-blend-mode:screen">
<rect x="10.7778" y="20.7778" width="76.6481" height="57.4816" fill="#414141"/>
</g>
</g>
</g>
</g>
</g>
<defs>
<clipPath id="clip0_2005_310">
<rect width="100" height="100" fill="white"/>
</clipPath>
<clipPath id="clip1_2005_310">
<rect x="10.7778" y="20.7778" width="76.6421" height="57.4816" rx="4" fill="white"/>
</clipPath>
<clipPath id="clip2_2005_310">
<rect width="80" height="60" fill="white" transform="translate(9 19.9999)"/>
</clipPath>
</defs>
</svg>

<svg xmlns="http://www.w3.org/2000/svg" width="100" height="100" fill="none" xmlns:v="https://vecta.io/nano"><g clip-path="url(#A)"><path d="M87.426 11.796H14.37c-6.944 0-12.574 5.63-12.574 12.574v53.889c0 6.945 5.63 12.574 12.574 12.574h73.056c6.945 0 12.574-5.63 12.574-12.574V24.37c0-6.944-5.63-12.574-12.574-12.574z" fill="#605f5e" fill-opacity=".3"/><path d="M85.63 10H12.574C5.63 10 0 15.63 0 22.574v53.889c0 6.945 5.63 12.574 12.574 12.574H85.63c6.945 0 12.574-5.63 12.574-12.574V22.574C98.204 15.63 92.574 10 85.63 10z" fill="#f5f1ee"/><g clip-path="url(#B)"><g clip-path="url(#C)"><path d="M9 20h80v60H9V20z" fill="#ee1c25"/><g fill="#ff0"><path d="M18.6 42.2L24 26l5.4 16.2L15 32.3h18l-14.4 9.9zm23.421-15.89l-5.557 1.231 3.707-4.32-.364 5.814-3.084-5.147 5.298 2.421zm5.609 7.108l-5.6-1.02 5.092-2.544-2.59 5.218-.846-5.94 3.944 4.286zm-.817 9.973l-4.697-3.216 5.687-.246-4.493 3.708 1.65-5.769 1.853 5.522zm-7.064 6.514l-3.091-4.78 5.34 1.97-5.576 1.685 3.75-4.684-.424 5.81z"/></g></g><g style="mix-blend-mode:screen"><path fill="#414141" d="M10.778 20.778h76.648v57.482H10.778z"/></g></g></g><defs><clipPath id="A"><path fill="#fff" d="M0 0h100v100H0z"/></clipPath><clipPath id="B"><rect x="10.778" y="20.778" width="76.642" height="57.482" rx="4" fill="#fff"/></clipPath><clipPath id="C"><path fill="#fff" transform="translate(9 20)" d="M0 0h80v60H0z"/></clipPath></defs></svg>
